X: 2557
T: Ballyhoura Mountains, The
R: polka
M: 2/4
K: Gmajor
Bc/B/ AG|EG GA|Bc/B/ AG|Bd ed|
Bc/B/ AG|EG GA|BA/B/ dB|1 AG GA:|2 AG Ge/f/|
|:gd ed|Bd de/f/|gd ed|Bd A2|
gd ed|Bd eg/e/|dB Ac|1 BG Ge/f/:|2 BG GA|

